public/logos/appwriteio.svg

<svg width="384" height="384" viewBox="0 0 384 384" fill="none" xmlns="http://www.w3.org/2000/svg">
<path fill-rule="evenodd" clip-rule="evenodd" d="M245.428 251.188C225.963 251.188 207.717 245.97 192.013 236.856C180.23 243.676 167.137 248.24 153.392 250.162C125.4 254.077 96.9988 246.711 74.4371 229.686C63.2548 221.259 53.8425 210.712 46.738 198.647C39.6336 186.582 34.9763 173.235 33.0322 159.369C31.0882 145.503 31.8956 131.39 35.4082 117.836C38.9208 104.282 45.0698 91.5535 53.5038 80.3772C61.9378 69.2008 72.4915 59.7959 84.5617 52.6999C96.632 45.604 109.982 40.9561 123.85 39.0218C137.717 37.0876 151.829 37.9049 165.381 41.427C174.734 43.8581 183.694 47.545 192.02 52.3718C207.723 43.2611 225.966 38.0443 245.428 38.0443C304.287 38.0443 352 85.7574 352 144.616C352 203.475 304.287 251.188 245.428 251.188ZM174.175 65.3628L174.207 65.3348C159.408 58.6947 142.917 56.2743 126.596 58.5567C103.772 61.7486 83.1498 73.8768 69.2675 92.2732C55.3852 110.67 49.3795 133.827 52.5714 156.652C55.7633 179.476 67.8915 200.098 86.2879 213.98C104.684 227.862 127.842 233.868 150.666 230.676C173.491 227.484 194.113 215.356 207.995 196.96C221.877 178.563 227.883 155.406 224.691 132.581C223.218 122.051 219.844 111.99 214.829 102.843C205.746 86.3437 191.457 73.1128 174.175 65.3628ZM60.2808 291.922C57.5061 289.883 54.1506 288.863 50.2139 288.863C46.6568 288.863 43.5025 289.658 40.7517 291.247C38.0008 292.835 35.8542 295.135 34.3126 298.145C32.771 301.158 32 304.703 32 308.781C32 312.812 32.771 316.333 34.3126 319.346C35.8542 322.359 38.0123 324.672 40.787 326.284C43.5617 327.896 46.704 328.703 50.2139 328.703C54.1506 328.703 57.5061 327.683 60.2808 325.644C63.0555 323.605 64.9634 320.901 66.0049 317.533V328.204H70.917V289.358H66.0049V300.029C64.9634 296.663 63.0555 293.961 60.2808 291.922ZM40.9988 297.434C43.6323 294.659 47.1303 293.272 51.4938 293.272C54.2446 293.272 56.7223 293.912 58.9259 295.192C61.1326 296.475 62.8639 298.29 64.1204 300.638C65.3769 302.983 66.0049 305.697 66.0049 308.781C66.0049 311.865 65.3769 314.58 64.1204 316.928C62.8639 319.276 61.1326 321.09 58.9259 322.37C56.7223 323.65 54.2446 324.289 51.4938 324.289C47.1303 324.289 43.6323 322.902 40.9988 320.128C38.3685 317.353 37.0533 313.571 37.0533 308.781C37.0533 303.991 38.3685 300.209 40.9988 297.434ZM111.929 291.247C109.201 289.658 106.059 288.863 102.502 288.863C98.5181 288.863 95.1507 289.883 92.3998 291.922C89.649 293.961 87.7526 296.663 86.711 300.029V289.358H81.7284V346.559H86.711V317.533C87.7526 320.901 89.649 323.605 92.3998 325.644C95.1507 327.683 98.5181 328.703 102.502 328.703C106.012 328.703 109.143 327.896 111.894 326.284C114.644 324.672 116.791 322.359 118.333 319.346C119.874 316.333 120.645 312.812 120.645 308.781C120.645 304.703 119.874 301.158 118.333 298.145C116.791 295.135 114.656 292.835 111.929 291.247ZM93.715 295.192C95.9217 293.912 98.4007 293.272 101.152 293.272C105.562 293.272 109.072 294.659 111.682 297.434C114.289 300.209 115.592 303.991 115.592 308.781C115.592 313.571 114.289 317.353 111.682 320.128C109.072 322.902 105.562 324.289 101.152 324.289C98.4007 324.289 95.9217 323.65 93.715 322.37C91.5114 321.09 89.7929 319.276 88.5602 316.928C87.3276 314.58 86.711 311.865 86.711 308.781C86.711 305.697 87.3276 302.983 88.5602 300.638C89.7929 298.29 91.5114 296.475 93.715 295.192ZM159.808 291.247C157.081 289.658 153.938 288.863 150.381 288.863C146.397 288.863 143.03 289.883 140.279 291.922C137.528 293.961 135.632 296.663 134.59 300.029V289.358H129.608V346.559H134.59V317.533C135.632 320.901 137.528 323.605 140.279 325.644C143.03 327.683 146.397 328.703 150.381 328.703C153.891 328.703 157.022 327.896 159.773 326.284C162.524 324.672 164.67 322.359 166.212 319.346C167.753 316.333 168.524 312.812 168.524 308.781C168.524 304.703 167.753 301.158 166.212 298.145C164.67 295.135 162.536 292.835 159.808 291.247ZM141.594 295.192C143.801 293.912 146.28 293.272 149.031 293.272C153.441 293.272 156.951 294.659 159.561 297.434C162.168 300.209 163.471 303.991 163.471 308.781C163.471 313.571 162.168 317.353 159.561 320.128C156.951 322.902 153.441 324.289 149.031 324.289C146.28 324.289 143.801 323.65 141.594 322.37C139.391 321.09 137.672 319.276 136.439 316.928C135.207 314.58 134.59 311.865 134.59 308.781C134.59 305.697 135.207 302.983 136.439 300.638C137.672 298.29 139.391 296.475 141.594 295.192ZM233.051 288.793H223.659L217.185 319.241L208.363 288.793H197.762L189.014 319.241L182.611 288.793H172.579L183.109 328.204H194.204L202.886 299.535L211.35 328.204H222.45L233.051 288.793ZM253.893 290.39C251.474 291.838 249.531 293.818 248.063 296.331V288.793H238.031V328.204H248.063V309.209C248.063 302.38 251.737 298.966 259.087 298.966H262.005V288.223C259.018 288.223 256.314 288.946 253.893 290.39ZM268.125 273.531C266.986 274.55 266.417 275.865 266.417 277.477C266.417 279.042 266.986 280.336 268.125 281.356C269.263 282.377 270.757 282.888 272.604 282.888C274.455 282.888 275.95 282.377 277.088 281.356C278.227 280.336 278.796 279.042 278.796 277.477C278.796 275.865 278.227 274.55 277.088 273.531C275.95 272.511 274.455 272 272.604 272C270.757 272 269.263 272.511 268.125 273.531ZM277.587 288.793H267.555V328.204H277.587V288.793ZM307.749 319.594H303.839C302.035 319.594 300.754 319.215 299.995 318.459C299.236 317.7 298.856 316.372 298.856 314.474V297.258H307.678V288.793H298.856V279.044H288.825V288.793H283.348V297.258H288.825V314.333C288.825 319.311 289.999 322.868 292.346 325.004C294.694 327.137 298.073 328.204 302.484 328.204H307.749V319.594ZM351.647 310.418C351.882 309.138 352 308 352 307.002C352 303.398 351.206 300.185 349.617 297.364C348.028 294.542 345.775 292.325 342.86 290.713C339.941 289.1 336.538 288.294 332.652 288.294C328.809 288.294 325.393 289.1 322.404 290.713C319.418 292.325 317.095 294.661 315.435 297.721C313.773 300.778 312.942 304.371 312.942 308.498C312.942 312.624 313.773 316.204 315.435 319.241C317.095 322.277 319.418 324.613 322.404 326.249C325.393 327.885 328.809 328.703 332.652 328.703C335.923 328.703 338.899 328.086 341.58 326.854C344.257 325.621 346.451 323.913 348.16 321.73C349.867 319.549 350.981 317.084 351.501 314.333H340.9C340.474 316.278 339.489 317.818 337.948 318.954C336.409 320.092 334.477 320.662 332.153 320.662C329.543 320.662 327.362 319.832 325.608 318.173C323.852 316.513 322.903 313.928 322.762 310.418H351.647ZM339.373 298.679C341.201 300.338 342.042 302.782 341.898 306.009H322.762C322.95 302.782 323.969 300.338 325.82 298.679C327.67 297.019 329.948 296.19 332.652 296.19C335.306 296.19 337.546 297.019 339.373 298.679Z" fill="#F02E65"/>
<path d="M141.487 107.744C141.359 108.059 139.73 114.459 137.975 122.05C136.154 129.641 133.268 141.623 131.64 148.712C128.5 161.698 126.618 170.23 126.618 171.36C126.618 171.671 128.564 171.925 130.946 171.925H135.277L137.219 163.265C138.351 158.561 140.861 147.77 142.868 139.301C144.876 130.831 147.321 120.543 148.264 116.401C149.203 112.26 150.144 108.499 150.334 108.059C150.523 107.495 149.454 107.308 146.193 107.308C143.745 107.308 141.61 107.495 141.487 107.744ZM107.796 134.909L102.024 141.184L103.72 143.19C104.658 144.318 107.233 147.143 109.429 149.465L113.444 153.729H124.862L119.468 147.894C116.517 144.761 114.07 141.748 114.07 141.372C114.07 140.933 116.33 138.111 119.091 135.099C121.85 132.027 124.109 129.388 124.109 129.075C124.109 128.824 121.725 128.636 118.84 128.636H113.633L107.796 134.909ZM151.712 129.011C151.712 129.202 152.779 130.392 154.094 131.71C158.991 136.603 162.441 140.746 162.252 141.559C162.128 142 159.742 144.946 156.858 148.021L151.653 153.729H157.485L163.32 153.667L168.65 147.834C171.601 144.574 173.984 141.684 173.984 141.308C173.984 140.997 171.475 138.047 168.337 134.724L162.693 128.636H157.232C154.158 128.636 151.712 128.824 151.712 129.011Z" fill="#F02E65"/>
</svg>

<svg xmlns="http://www.w3.org/2000/svg" fill="#F02E65" viewBox="0 0 384 290">
  <path fill-rule="evenodd" d="M245.43 251.19c-19.47 0-37.71-5.22-53.42-14.33a106.53 106.53 0 0 1-117.57-7.17A106.59 106.59 0 0 1 84.56 52.7a106.57 106.57 0 0 1 107.46-.33 106.09 106.09 0 0 1 53.4-14.33C304.3 38.04 352 85.76 352 144.62c0 58.85-47.71 106.57-106.57 106.57ZM174.18 65.36l.03-.03a86.9 86.9 0 1 0 40.62 37.51 87.25 87.25 0 0 0-40.66-37.48Z" clip-rule="evenodd"/>
  <path d="M141.49 107.74c-.13.32-1.76 6.72-3.52 14.31-1.82 7.6-4.7 19.57-6.33 26.66-3.14 12.99-5.02 21.52-5.02 22.65 0 .31 1.94.56 4.33.56h4.33l1.94-8.66c1.13-4.7 3.64-15.49 5.65-23.96 2-8.47 4.45-18.76 5.4-22.9.93-4.14 1.87-7.9 2.06-8.34.2-.56-.88-.75-4.14-.75-2.44 0-4.58.19-4.7.43Zm-33.7 27.17-5.77 6.27 1.7 2.01a184.5 184.5 0 0 0 5.7 6.28l4.02 4.26h11.42l-5.4-5.84c-2.94-3.13-5.39-6.14-5.39-6.52 0-.44 2.26-3.26 5.02-6.27 2.76-3.07 5.02-5.71 5.02-6.03 0-.25-2.39-.43-5.27-.43h-5.2l-5.84 6.27Zm43.92-5.9c0 .2 1.07 1.38 2.38 2.7 4.9 4.9 8.35 9.04 8.16 9.85-.12.44-2.5 3.39-5.4 6.46l-5.2 5.7h5.84l5.83-.05 5.33-5.84c2.95-3.26 5.33-6.15 5.33-6.52 0-.31-2.5-3.26-5.64-6.59l-5.65-6.08h-5.46c-3.07 0-5.52.18-5.52.37Z"/>
</svg>
